X: 20082
T: I WONT BE A NUN
C:
%R: march
B: Elias Howe "The Musician's Companion" 1843 p.8 #2
S: http://imslp.org/wiki/The_Musician's_Companion_(Howe,_Elias)
Z: 2015 John Chambers <jc:trillian.mit.edu>
N: There's no apostrophe in "WONT", and the beaming is a bit odd.
N: The rhythms aren't quite right at the strains' boundaries; not fixed.
M: 2/4
L: 1/8
K: G
% - - - - - - - - - - - - - - - - - - - - - - - - -
d |\
gd cB | c< c c d | e A AA | A2 dd |\
g2 dB | cedc | BG GG | G2 z |]
FG |\
A2 DD | D2 FG | A2 DD | D2 zd |\
g2 dB | ce dc | BG GG | G2 z |]
% - - - - - - - - - - - - - - - - - - - - - - - - -

%%sep 1 1 500

